X:2
M:6/8
L:1/8
K:A
| EFE ECE | FAA A2B | cec BAB | cAA A3 :|| 
| cee ecA | dcB cAF | EFE ECE | FAA A3 :|| 

